docs/styles/img/icons/Star.svg

<svg width="36" height="34" viewBox="0 0 36 34" fill="none" xmlns="http://www.w3.org/2000/svg">
<path d="M16.6365 0.701494C17.0226 -0.233831 18.3374 -0.233832 18.7235 0.701493L22.7956 10.5674C22.9584 10.9617 23.3264 11.2311 23.7488 11.2652L34.3186 12.1191C35.3206 12.2001 35.7269 13.4602 34.9635 14.1192L26.9104 21.0706C26.5886 21.3484 26.448 21.7843 26.5464 22.1997L29.0067 32.5934C29.2399 33.5787 28.1762 34.3575 27.3183 33.8295L18.2691 28.2598C17.9074 28.0372 17.4526 28.0372 17.0909 28.2598L8.04172 33.8295C7.18382 34.3575 6.12006 33.5787 6.35331 32.5934L8.81365 22.1997C8.91198 21.7843 8.77142 21.3484 8.44957 21.0706L0.396524 14.1192C-0.366935 13.4602 0.039383 12.2001 1.04144 12.1191L11.6112 11.2652C12.0336 11.2311 12.4016 10.9617 12.5644 10.5674L16.6365 0.701494Z" fill="#F8CD02"/>
</svg>

<svg width="36" height="34" fill="none" xmlns="http://www.w3.org/2000/svg"><path d="M16.637.701c.386-.935 1.7-.935 2.087 0l4.072 9.866c.162.395.53.664.953.698l10.57.854c1.002.081 1.408 1.341.645 2l-8.054 6.952a1.144 1.144 0 00-.364 1.129l2.46 10.393c.234.986-.83 1.764-1.688 1.236l-9.049-5.57a1.123 1.123 0 00-1.178 0l-9.05 5.57c-.857.529-1.92-.25-1.688-1.236L8.813 22.2a1.144 1.144 0 00-.363-1.13L.397 14.12c-.764-.66-.358-1.92.644-2l10.57-.855c.423-.034.79-.303.953-.698L16.637.701z" fill="#F8CD02"/></svg>
